X: 1
P: Rachel Rae
C: Skye Colln., SRSNH, etc.
C: arr. T. Traub 4-8-2007
R: Reel
K: D
M: 4/4
L: 1/8
A|"D"D2 FA d2 Ac|"D"d2 fd "A"e2 cA|"D"d2 AF "G"BAGF|"A"EFGA "D"FDDA|"D"D2 FA d2 Ac|
"D"d2 fd "A"e2 cA|"D"d2 AF "G"BAGF |"A"EFGA "D"FD D || A|"D"defg a2 fd|"G"g2 bg "A"e2 cA|
"D"defg a2 fd|"A"egfe "D"fddA|"D"defg fafd|"G"g2 bg "A"e2 cA|"D"d2 AF "G"BAGF|"A"EFGA "D"FD D |]
